X: 20068
T: Jimmy McBride's
R: reel
M: 4/4
K: Cmajor
EFGc AEGE|EDCD EGcd|eddc AGAc|dcec dcAG|
~E3G cE~E2|EDCD EGcd|eddc AGcA|GEDG ECCD|
EDEG cAGE|EDCD (3EFG cd|eddc AGAc|ddcd dcAG|
EG~G2 cAGE|EDCD (3EFG cd|eddc AGcA|GEDG ECC2||
g^fga gc ~c2|gcac gccg|ea~a2 ed~d2|edad eddg|
eg~g2 aged|~c3A d2cd|eddc AGcA|GEDG ECC2|
~g3a gc~c2|GccB cdec|Add^c defg|(3agf ge fedf|
ec~c2 GcBc|AF~F2 Ad~d2|eddc AGcA|GEDG ECCD||

